X:1
T:Adagio
T:Adagio
T:Albinoni (attr)
C:Albinoni (attr)
%%score ( 1 2 ) ( 3 4 ) 5
L:1/8
M:3/4
K:Ab
V:1 treble nm="Flute" snm="Fl."
V:2 treble 
V:3 treble transpose=-2 nm="B♭ Clarinet" snm="B♭ Cl."
V:4 treble transpose=-2 
V:5 treble transpose=-2 nm="B♭ Clarinet" snm="B♭ Cl."
V:1
 C6- | C6 | x6 | x6 | x6 | x6 | x6 | C6 |:"^(Flute second time 8va)" c2 B>A G>F | F4 =E2 | %10
 d2 c>B A>G | G4 F2 | f2 ef (3dec | d6 | e2 de (3cdB | c6 | d2 cd (3BcA | B6 | c4 d2 | %19
 !fermata!c4 z f | ga gf =ef | e4 e/4f/4_gf/4e/4 | d3 B d>f | c3 A c>f | B4 B/4c/4dc/4B/4 | %25
 A4 A/4B/4cB/4A/4 | G4 G/4A/4BA/4G/4 |1 F2 CF A/c/f/a/ :|2 F6 ||"^Freely" z3!ff! f _g/f/=e/f/ | %30
 e/d/c/d/ e/d/c/d/ c/B/=A/B/ | c4 z2 | z2 z f _g/f/=e/f/ | e/d/c/d/ e/d/c/d/ d/c/B/=A/ | %34
 B3 F B/d/f/b/ | d/B/F/D/ F/B/d/f/ d/B/F/B/ | d/f/b/d'/ b/f/d/B/ d/f/b/d'/ | f'3 z z2 | %38
 z2 z c' d'/c'/=b/c'/ | b/a/g/a/ b/a/g/a/ g/f/=e/f/ | g4 z2 | z2 z c' d'/c'/=b/c'/ | %42
 b/a/g/a/ b/a/g/a/ a/g/f/=e/ | f3 A c/f/a/c'/ | a/f/c/f/ a/c'/f'/a'/ f'/c'/a/f/ | %45
 A/c/f/a/ c'/a/f/c/ f/a/c'/f'/ | a'3 z z2 | z2 z!f! (uB cd) | %48
!>(! (d/c/)!tenuto!e/!tenuto!d/ (d/c/)!tenuto!c/!tenuto!B/ (B/=A/)!tenuto!A/!tenuto!B/!>)! | %49
!>(! (=A/4B/4!fermata!c3/2-) c2- cB!>)! | B2 z4 | (A/4G/4A3/2-) A4 | %52
"_dim." (G/4F/4G3/2- G2- (3GF=E) | F2 C!f!F (A/c/)!tenuto!f/!tenuto!a/ | %54
 (f/c/)!tenuto!A/!tenuto!c/ (F/A/)!tenuto!c/!tenuto!f/ (a/f/)!tenuto!a/!tenuto!c'/ | %55
 !fermata!f'6 |] %56
V:2
 x6 | x6 | F6 | D6 | D6 | =D6 | F4 =E2 | x6 |: x6 | x6 | x6 | x6 | x6 | x6 | x6 | x6 | x6 | x6 | %18
 x6 | x6 | x6 | x6 | x6 | x6 | z6 | x6 | x6 |1 x6 :|2 x6 || x6 | x6 | x6 | x6 | x6 | x6 | x6 | x6 | %37
 x6 | x6 | x6 | x6 | x6 | x6 | x6 | x6 | x6 | x6 | x6 | x6 | x6 | x6 | x6 | x6 | x6 | x6 | x6 |] %56
V:3
[K:Bb] G6- | G6 | G/4A/4B3/2- B3 G | G6 | A/4B/4c3/2- c4 | B/4A/4B3/2- B4 | A/4 x4 x7/4 | %7
 z/4 G/4G/G G4 |: G6 | C>D E>D E>C | ^F6 | D>=E ^F>D G2 | G4 x2 | x6 | x6 | x6 | x6 | x6 | x4 x2 | %19
 !fermata!G4 z2 | z6 | x6 | x6 | x6 | x6 | x6 | x6 |1 B,6 :|2 =B,6- || B,6- | B,6- | B,4- B,>=B, | %32
 C6- | C6- | C6- | C6 | E6- | E4- E>E | ^F6- | F6- | F4- F>^F | G6 | D6- | D6- | D6- | D6- | %46
 D4 z2 |!f! ^F6- |!>(! F2- F4!>)! |!p!!mf!!>(! !courtesy!=F4- F2!>)! |!pp! E6 |!mf! =E6 | %52
"_dim." (D2- D2 C2) | B,4- B,2- | B,6- |!pp! !fermata!B,6 |] %56
V:4
[K:Bb] x6 | x6 | z6 | x6 | x6 | x6 | x4 z2 | x6 |: x6 | x6 | x6 | x6 | x4 D2- | D2 CD (3B,CA, | %14
 C4 C2- | C2 B,C (3A,B,G, | B,4 B,2- | B,2 A,B, (3CB,A,- | A,2 z ^F GA | x6 | x6 | d6 | G6- | G6 | %24
 C6 | G6 | ^F6 |1 x6 :|2 x6 || x6 | x6 | x6 | x6 | x6 | x6 | x6 | x6 | x6 | x6 | x6 | x6 | x6 | %42
 x6 | x6 | x6 | x6 | x6 | x6 | x6 | x6 | x6 | x6 | x6 | x6 | x6 | x6 |] %56
V:5
[K:Bb] G6 | F6 | E6 | D6 | C6 | ^C6 | D6 | B6 |: G6 | A6- | A6 | B6- | B6 | c6 | A6 | B6 | G6 | %17
 A6 | B2 g2 c2 | !fermata!b4 z2 | z6 | =B6 | c6 | B6 | _A6 | D6- | D6 |1 B,6 :|2 B,6- || B,6- | %30
 B,6- | B,4- B,>B, | B,6- | B,6- | B,6- | B,6 | G,6- | G,6- | A,6- | A,6- | A,6 | G,6 | G,6- | %43
 G,6- | G,6- | G,6- | G,4 z2 | D6- | D2- D4 | =B,4- B,2 | C6 | z6 | z6 | z6 | z6 | z6 |] %56

